svgs/sharp-light/code-fork.svg

<svg xmlns="http://www.w3.org/2000/svg" viewBox="0 0 448 512"><!--! Font Awesome Pro 6.6.0 by @fontawesome - https://fontawesome.com License - https://fontawesome.com/license (Commercial License) Copyright 2024 Fonticons, Inc. --><path d="M128 32l0 96-32 0-32 0-32 0 0-96 96 0zM32 160l32 0 0 32c0 44.2 35.8 80 80 80l64 0 0 80-32 0-32 0 0 32 0 96 0 32 32 0 96 0 32 0 0-32 0-96 0-32-32 0-32 0 0-80 64 0c44.2 0 80-35.8 80-80l0-32 32 0 32 0 0-32 0-96 0-32L416 0 320 0 288 0l0 32 0 96 0 32 32 0 32 0 0 32c0 26.5-21.5 48-48 48l-160 0c-26.5 0-48-21.5-48-48l0-32 32 0 32 0 0-32 0-96 0-32L128 0 32 0 0 0 0 32l0 96 0 32 32 0zm352-32l-32 0-32 0 0-96 96 0 0 96-32 0zM240 384l32 0 0 96-96 0 0-96 32 0 32 0z"/></svg>

<svg xmlns="http://www.w3.org/2000/svg" viewBox="0 0 448 512"><!--! Font Awesome Pro 6.4.2 by @fontawesome - https://fontawesome.com License - https://fontawesome.com/license (Commercial License) Copyright 2023 Fonticons, Inc. --><path d="M128 32v96H96 64 32V32h96zM32 160H64v32c0 44.2 35.8 80 80 80h64v80H176 144v32 96 32h32 96 32V480 384 352H272 240V272h64c44.2 0 80-35.8 80-80V160h32 32V128 32 0H416 320 288V32v96 32h32 32v32c0 26.5-21.5 48-48 48H144c-26.5 0-48-21.5-48-48V160h32 32V128 32 0H128 32 0V32v96 32H32zm352-32H352 320V32h96v96H384zM240 384h32v96H176V384h32 32z"/></svg>
